X: 1
T: Reel De Chicoutimi
M: 4/4
L: 1/8
R: reel
K: Gmaj
d2 |: BGGG BGGc | BGGG EDEd | BGGG BGGc |[1 BGEG D3d :|[2 BGEG D4 ||
|: GBAB GDDD | GBAB GDDD | GDGA B2dd |[1 dBAB G4 :|[2 dBAB G2z2 |]
